dist/img/svg/services/conditioning/fancoils.svg

<svg width="20" height="20" viewBox="0 0 20 20" fill="none" xmlns="http://www.w3.org/2000/svg">
<g clip-path="url(#clip0_38_1497)">
<path d="M1.875 19.6875H18.125C18.5392 19.687 18.9364 19.5222 19.2293 19.2293C19.5222 18.9364 19.687 18.5392 19.6875 18.125V1.875C19.687 1.46075 19.5222 1.06361 19.2293 0.770695C18.9364 0.477776 18.5392 0.312996 18.125 0.3125H1.875C1.46075 0.312996 1.06361 0.477776 0.770695 0.770695C0.477776 1.06361 0.312996 1.46075 0.3125 1.875V18.125C0.312996 18.5392 0.477776 18.9364 0.770695 19.2293C1.06361 19.5222 1.46075 19.687 1.875 19.6875ZM0.9375 18.125V1.875C0.93804 1.73578 0.970091 1.5985 1.03125 1.47344L4.15625 4.59844C4.09531 4.72358 4.06328 4.86081 4.0625 5V15C4.06323 15.1393 4.09527 15.2766 4.15625 15.4019L1.03125 18.5269C0.970043 18.4017 0.937992 18.2643 0.9375 18.125ZM18.9688 1.47344C19.0299 1.5985 19.062 1.73578 19.0625 1.875V18.125C19.0618 18.2642 19.0298 18.4015 18.9688 18.5266L15.8438 15.4016C15.9048 15.2765 15.9368 15.1392 15.9375 15V5C15.937 4.86079 15.9049 4.7235 15.8438 4.59844L18.9688 1.47344ZM15.3125 14.0625H10.9375V13.4375H15.3125V14.0625ZM15.3125 12.8125H10.9375V12.1875H15.3125V12.8125ZM15.3125 11.5625H10.9375V10.9375H15.3125V11.5625ZM15.3125 10.3125H10.9375V9.6875H15.3125V10.3125ZM15.3125 9.0625H10.9375V8.4375H15.3125V9.0625ZM15.3125 7.8125H10.9375V7.1875H15.3125V7.8125ZM15.3125 6.5625H10.9375V5.9375H15.3125V6.5625ZM10.9375 14.6875H15.3125V15C15.3125 15.0829 15.2796 15.1624 15.221 15.221C15.1624 15.2796 15.0829 15.3125 15 15.3125H10.9375V14.6875ZM15.3125 5V5.3125H10.9375V4.6875H15C15.0829 4.6875 15.1624 4.72042 15.221 4.77903C15.2796 4.83763 15.3125 4.91712 15.3125 5ZM10.3125 15.3125H9.6875V4.6875H10.3125V15.3125ZM4.6875 5.9375H9.0625V6.5625H4.6875V5.9375ZM4.6875 7.1875H9.0625V7.8125H4.6875V7.1875ZM4.6875 8.4375H9.0625V9.0625H4.6875V8.4375ZM4.6875 9.6875H9.0625V10.3125H4.6875V9.6875ZM4.6875 10.9375H9.0625V11.5625H4.6875V10.9375ZM4.6875 12.1875H9.0625V12.8125H4.6875V12.1875ZM4.6875 13.4375H9.0625V14.0625H4.6875V13.4375ZM4.6875 15V14.6875H9.0625V15.3125H5C4.91712 15.3125 4.83763 15.2796 4.77903 15.221C4.72042 15.1624 4.6875 15.0829 4.6875 15ZM9.0625 5.3125H4.6875V5C4.6875 4.91712 4.72042 4.83763 4.77903 4.77903C4.83763 4.72042 4.91712 4.6875 5 4.6875H9.0625V5.3125ZM1.875 19.0625C1.73578 19.062 1.5985 19.0299 1.47344 18.9688L4.59844 15.8438C4.72355 15.9048 4.8608 15.9368 5 15.9375H15C15.1393 15.9368 15.2766 15.9047 15.4019 15.8438L18.5269 18.9688C18.4016 19.0297 18.2643 19.0618 18.125 19.0625H1.875ZM18.125 0.9375C18.2642 0.93804 18.4015 0.970091 18.5266 1.03125L15.4016 4.15625C15.2765 4.09509 15.1392 4.06304 15 4.0625H5C4.8608 4.06318 4.72355 4.09522 4.59844 4.15625L1.47344 1.03125C1.59855 0.970232 1.7358 0.93819 1.875 0.9375H18.125Z" fill="#78C081"/>
<path d="M14.0625 16.5625H5.9375C5.68886 16.5625 5.4504 16.6613 5.27459 16.8371C5.09877 17.0129 5 17.2514 5 17.5C5 17.7486 5.09877 17.9871 5.27459 18.1629C5.4504 18.3387 5.68886 18.4375 5.9375 18.4375H14.0625C14.3111 18.4375 14.5496 18.3387 14.7254 18.1629C14.9012 17.9871 15 17.7486 15 17.5C15 17.2514 14.9012 17.0129 14.7254 16.8371C14.5496 16.6613 14.3111 16.5625 14.0625 16.5625ZM14.0625 17.8125H5.9375C5.85462 17.8125 5.77513 17.7796 5.71653 17.721C5.65792 17.6624 5.625 17.5829 5.625 17.5C5.625 17.4171 5.65792 17.3376 5.71653 17.279C5.77513 17.2204 5.85462 17.1875 5.9375 17.1875H14.0625C14.1454 17.1875 14.2249 17.2204 14.2835 17.279C14.3421 17.3376 14.375 17.4171 14.375 17.5C14.375 17.5829 14.3421 17.6624 14.2835 17.721C14.2249 17.7796 14.1454 17.8125 14.0625 17.8125Z" fill="#78C081"/>
<path d="M5.9375 3.4375H14.0625C14.3111 3.4375 14.5496 3.33873 14.7254 3.16291C14.9012 2.9871 15 2.74864 15 2.5C15 2.25136 14.9012 2.0129 14.7254 1.83709C14.5496 1.66127 14.3111 1.5625 14.0625 1.5625H5.9375C5.68886 1.5625 5.4504 1.66127 5.27459 1.83709C5.09877 2.0129 5 2.25136 5 2.5C5 2.74864 5.09877 2.9871 5.27459 3.16291C5.4504 3.33873 5.68886 3.4375 5.9375 3.4375ZM5.9375 2.1875H14.0625C14.1454 2.1875 14.2249 2.22042 14.2835 2.27903C14.3421 2.33763 14.375 2.41712 14.375 2.5C14.375 2.58288 14.3421 2.66237 14.2835 2.72097C14.2249 2.77958 14.1454 2.8125 14.0625 2.8125H5.9375C5.85462 2.8125 5.77513 2.77958 5.71653 2.72097C5.65792 2.66237 5.625 2.58288 5.625 2.5C5.625 2.41712 5.65792 2.33763 5.71653 2.27903C5.77513 2.22042 5.85462 2.1875 5.9375 2.1875Z" fill="#78C081"/>
<path d="M17.5 15C17.7486 15 17.9871 14.9012 18.1629 14.7254C18.3387 14.5496 18.4375 14.3111 18.4375 14.0625V5.9375C18.4375 5.68886 18.3387 5.4504 18.1629 5.27459C17.9871 5.09877 17.7486 5 17.5 5C17.2514 5 17.0129 5.09877 16.8371 5.27459C16.6613 5.4504 16.5625 5.68886 16.5625 5.9375V14.0625C16.5625 14.3111 16.6613 14.5496 16.8371 14.7254C17.0129 14.9012 17.2514 15 17.5 15ZM17.1875 5.9375C17.1875 5.85462 17.2204 5.77513 17.279 5.71653C17.3376 5.65792 17.4171 5.625 17.5 5.625C17.5829 5.625 17.6624 5.65792 17.721 5.71653C17.7796 5.77513 17.8125 5.85462 17.8125 5.9375V14.0625C17.8125 14.1454 17.7796 14.2249 17.721 14.2835C17.6624 14.3421 17.5829 14.375 17.5 14.375C17.4171 14.375 17.3376 14.3421 17.279 14.2835C17.2204 14.2249 17.1875 14.1454 17.1875 14.0625V5.9375Z" fill="#78C081"/>
<path d="M2.5 5C2.25136 5 2.0129 5.09877 1.83709 5.27459C1.66127 5.4504 1.5625 5.68886 1.5625 5.9375V14.0625C1.5625 14.3111 1.66127 14.5496 1.83709 14.7254C2.0129 14.9012 2.25136 15 2.5 15C2.74864 15 2.9871 14.9012 3.16291 14.7254C3.33873 14.5496 3.4375 14.3111 3.4375 14.0625V5.9375C3.4375 5.68886 3.33873 5.4504 3.16291 5.27459C2.9871 5.09877 2.74864 5 2.5 5ZM2.8125 14.0625C2.8125 14.1454 2.77958 14.2249 2.72097 14.2835C2.66237 14.3421 2.58288 14.375 2.5 14.375C2.41712 14.375 2.33763 14.3421 2.27903 14.2835C2.22042 14.2249 2.1875 14.1454 2.1875 14.0625V5.9375C2.1875 5.85462 2.22042 5.77513 2.27903 5.71653C2.33763 5.65792 2.41712 5.625 2.5 5.625C2.58288 5.625 2.66237 5.65792 2.72097 5.71653C2.77958 5.77513 2.8125 5.85462 2.8125 5.9375V14.0625Z" fill="#78C081"/>
</g>
<defs>
<clipPath id="clip0_38_1497">
<rect width="20" height="20" fill="white" transform="matrix(-1 0 0 -1 20 20)"/>
</clipPath>
</defs>
</svg>

<svg width="20" height="20" fill="none" xmlns="http://www.w3.org/2000/svg"><g clip-path="url(#clip0_38_1497)" fill="#78C081"><path d="M1.875 19.688h16.25a1.565 1.565 0 001.563-1.563V1.875A1.564 1.564 0 0018.125.312H1.875A1.564 1.564 0 00.312 1.875v16.25a1.564 1.564 0 001.563 1.563zm-.938-1.563V1.875a.934.934 0 01.094-.402l3.125 3.125A.929.929 0 004.063 5v10c0 .14.032.277.093.402l-3.125 3.125a.922.922 0 01-.093-.402zM18.97 1.473a.922.922 0 01.093.402v16.25c0 .14-.032.276-.093.402l-3.125-3.125a.927.927 0 00.094-.402V5a.922.922 0 00-.094-.402l3.125-3.125zm-3.657 12.59h-4.374v-.626h4.374v.626zm0-1.25h-4.374v-.626h4.374v.626zm0-1.25h-4.374v-.626h4.374v.626zm0-1.25h-4.374v-.626h4.374v.626zm0-1.25h-4.374v-.626h4.374v.626zm0-1.25h-4.374v-.625h4.374v.625zm0-1.25h-4.374v-.625h4.374v.625zm-4.374 8.125h4.374V15a.313.313 0 01-.312.313h-4.063v-.626zM15.311 5v.313h-4.374v-.625H15a.313.313 0 01.313.312zm-5 10.313h-.624V4.687h.624v10.625zM4.689 5.937h4.375v.625H4.686v-.625zm0 1.25h4.375v.625H4.686v-.625zm0 1.25h4.375v.626H4.686v-.626zm0 1.25h4.375v.626H4.686v-.626zm0 1.25h4.375v.626H4.686v-.626zm0 1.25h4.375v.626H4.686v-.626zm0 1.25h4.375v.626H4.686v-.626zm0 1.563v-.313h4.375v.626H5A.312.312 0 014.687 15zm4.375-9.688H4.686V5A.312.312 0 015 4.687h4.063v.625zm-7.188 13.75a.922.922 0 01-.402-.093l3.125-3.125a.927.927 0 00.402.094h10a.93.93 0 00.402-.094l3.125 3.125a.93.93 0 01-.402.093H1.875zM18.125.938c.14.001.276.033.402.094l-3.125 3.125A.923.923 0 0015 4.063H5a.926.926 0 00-.402.093L1.473 1.031a.927.927 0 01.402-.093h16.25z"/><path d="M14.063 16.563H5.937a.938.938 0 000 1.875h8.125a.938.938 0 000-1.875zm0 1.25H5.937a.312.312 0 110-.625h8.125a.313.313 0 110 .625zM5.938 3.438h8.125a.937.937 0 000-1.876H5.937a.937.937 0 100 1.875zm0-1.25h8.125a.313.313 0 110 .624H5.937a.312.312 0 110-.624zM17.5 15a.938.938 0 00.938-.938V5.938a.938.938 0 00-1.875 0v8.125A.938.938 0 0017.5 15zm-.313-9.063a.312.312 0 11.625 0v8.125a.313.313 0 11-.625 0V5.938zM2.5 5a.937.937 0 00-.938.938v8.125a.937.937 0 001.875 0V5.937A.937.937 0 002.5 5zm.313 9.063a.313.313 0 11-.626 0V5.937a.312.312 0 11.626 0v8.125z"/></g><defs><clipPath id="clip0_38_1497"><path fill="#fff" transform="rotate(180 10 10)" d="M0 0h20v20H0z"/></clipPath></defs></svg>
